Newaita/actions/16/kdenlive-show-video.svg

<svg height="16" viewBox="0 0 16 16" width="16" xmlns="http://www.w3.org/2000/svg"><g fill="#424242"><path d="m10.253906 11.371094h.660156c.183594 0 .332032.148437.332032.332031v.660156c0 .183594-.148438.332031-.332032.332031h-.660156c-.183594 0-.332031-.148437-.332031-.332031v-.660156c0-.183594.148437-.332031.332031-.332031zm0 0"/><path d="m10.253906 8.726562h.660156c.183594 0 .332032.144532.332032.328126v.664062c0 .179688-.148438.328125-.332032.328125h-.660156c-.183594 0-.332031-.148437-.332031-.328125v-.664062c0-.183594.148437-.328126.332031-.328126zm0 0"/><path d="m10.253906 6.078125h.660156c.183594 0 .332032.148437.332032.332031v.660156c0 .183594-.148438.332032-.332032.332032h-.660156c-.183594 0-.332031-.148438-.332031-.332032v-.660156c0-.183594.148437-.332031.332031-.332031zm0 0"/><path d="m10.253906 3.433594h.660156c.183594 0 .332032.148437.332032.328125v.664062c0 .183594-.148438.328125-.332032.328125h-.660156c-.183594 0-.332031-.144531-.332031-.328125v-.664062c0-.179688.148437-.328125.332031-.328125zm0 0"/><path d="m3.96875 1.449219c-.734375 0-1.324219.589843-1.324219 1.320312v10.585938c0 .734375.589844 1.324219 1.324219 1.324219h7.9375c.734375 0 1.324219-.589844 1.324219-1.324219v-10.585938c0-.730469-.589844-1.320312-1.324219-1.320312zm.660156 1.320312h6.617188c.367187 0 .660156.296875.660156.664063v9.261718c0 .363282-.292969.660157-.660156.660157h-6.617188c-.363281 0-.660156-.296875-.660156-.660157v-9.261718c0-.367188.296875-.664063.660156-.664063zm0 0"/><path d="m4.960938 11.371094h.660156c.183594 0 .332031.148437.332031.332031v.660156c0 .183594-.148437.332031-.332031.332031h-.660156c-.183594 0-.332032-.148437-.332032-.332031v-.660156c0-.183594.148438-.332031.332032-.332031zm0 0"/><path d="m4.960938 8.726562h.660156c.183594 0 .332031.144532.332031.328126v.664062c0 .179688-.148437.328125-.332031.328125h-.660156c-.183594 0-.332032-.148437-.332032-.328125v-.664062c0-.183594.148438-.328126.332032-.328126zm0 0"/><path d="m4.960938 6.078125h.660156c.183594 0 .332031.148437.332031.332031v.660156c0 .183594-.148437.332032-.332031.332032h-.660156c-.183594 0-.332032-.148438-.332032-.332032v-.660156c0-.183594.148438-.332031.332032-.332031zm0 0"/><path d="m4.960938 3.433594h.660156c.183594 0 .332031.148437.332031.328125v.664062c0 .183594-.148437.328125-.332031.328125h-.660156c-.183594 0-.332032-.144531-.332032-.328125v-.664062c0-.179688.148438-.328125.332032-.328125zm0 0"/></g></svg>

<svg xmlns="http://www.w3.org/2000/svg" xmlns:xlink="http://www.w3.org/1999/xlink" width="16px" height="16px" viewBox="0 0 16 16" version="1.1">
<g id="surface1">
     <defs>
  <style id="current-color-scheme" type="text/css">
   .ColorScheme-Text { color:#424242; } .ColorScheme-Highlight { color:#eeeeee; }
  </style>
 </defs>
<path style="fill:currentColor" class="ColorScheme-Text" d="M 10.253906 11.371094 L 10.914062 11.371094 C 11.097656 11.371094 11.246094 11.519531 11.246094 11.703125 L 11.246094 12.363281 C 11.246094 12.546875 11.097656 12.695312 10.914062 12.695312 L 10.253906 12.695312 C 10.070312 12.695312 9.921875 12.546875 9.921875 12.363281 L 9.921875 11.703125 C 9.921875 11.519531 10.070312 11.371094 10.253906 11.371094 Z M 10.253906 11.371094 "/>
     <defs>
  <style id="current-color-scheme" type="text/css">
   .ColorScheme-Text { color:#424242; } .ColorScheme-Highlight { color:#eeeeee; }
  </style>
 </defs>
<path style="fill:currentColor" class="ColorScheme-Text" d="M 10.253906 8.726562 L 10.914062 8.726562 C 11.097656 8.726562 11.246094 8.871094 11.246094 9.054688 L 11.246094 9.71875 C 11.246094 9.898438 11.097656 10.046875 10.914062 10.046875 L 10.253906 10.046875 C 10.070312 10.046875 9.921875 9.898438 9.921875 9.71875 L 9.921875 9.054688 C 9.921875 8.871094 10.070312 8.726562 10.253906 8.726562 Z M 10.253906 8.726562 "/>
     <defs>
  <style id="current-color-scheme" type="text/css">
   .ColorScheme-Text { color:#424242; } .ColorScheme-Highlight { color:#eeeeee; }
  </style>
 </defs>
<path style="fill:currentColor" class="ColorScheme-Text" d="M 10.253906 6.078125 L 10.914062 6.078125 C 11.097656 6.078125 11.246094 6.226562 11.246094 6.410156 L 11.246094 7.070312 C 11.246094 7.253906 11.097656 7.402344 10.914062 7.402344 L 10.253906 7.402344 C 10.070312 7.402344 9.921875 7.253906 9.921875 7.070312 L 9.921875 6.410156 C 9.921875 6.226562 10.070312 6.078125 10.253906 6.078125 Z M 10.253906 6.078125 "/>
     <defs>
  <style id="current-color-scheme" type="text/css">
   .ColorScheme-Text { color:#424242; } .ColorScheme-Highlight { color:#eeeeee; }
  </style>
 </defs>
<path style="fill:currentColor" class="ColorScheme-Text" d="M 10.253906 3.433594 L 10.914062 3.433594 C 11.097656 3.433594 11.246094 3.582031 11.246094 3.761719 L 11.246094 4.425781 C 11.246094 4.609375 11.097656 4.753906 10.914062 4.753906 L 10.253906 4.753906 C 10.070312 4.753906 9.921875 4.609375 9.921875 4.425781 L 9.921875 3.761719 C 9.921875 3.582031 10.070312 3.433594 10.253906 3.433594 Z M 10.253906 3.433594 "/>
     <defs>
  <style id="current-color-scheme" type="text/css">
   .ColorScheme-Text { color:#424242; } .ColorScheme-Highlight { color:#eeeeee; }
  </style>
 </defs>
<path style="fill:currentColor" class="ColorScheme-Text" d="M 3.96875 1.449219 C 3.234375 1.449219 2.644531 2.039062 2.644531 2.769531 L 2.644531 13.355469 C 2.644531 14.089844 3.234375 14.679688 3.96875 14.679688 L 11.90625 14.679688 C 12.640625 14.679688 13.230469 14.089844 13.230469 13.355469 L 13.230469 2.769531 C 13.230469 2.039062 12.640625 1.449219 11.90625 1.449219 Z M 4.628906 2.769531 L 11.246094 2.769531 C 11.613281 2.769531 11.90625 3.066406 11.90625 3.433594 L 11.90625 12.695312 C 11.90625 13.058594 11.613281 13.355469 11.246094 13.355469 L 4.628906 13.355469 C 4.265625 13.355469 3.96875 13.058594 3.96875 12.695312 L 3.96875 3.433594 C 3.96875 3.066406 4.265625 2.769531 4.628906 2.769531 Z M 4.628906 2.769531 "/>
     <defs>
  <style id="current-color-scheme" type="text/css">
   .ColorScheme-Text { color:#424242; } .ColorScheme-Highlight { color:#eeeeee; }
  </style>
 </defs>
<path style="fill:currentColor" class="ColorScheme-Text" d="M 4.960938 11.371094 L 5.621094 11.371094 C 5.804688 11.371094 5.953125 11.519531 5.953125 11.703125 L 5.953125 12.363281 C 5.953125 12.546875 5.804688 12.695312 5.621094 12.695312 L 4.960938 12.695312 C 4.777344 12.695312 4.628906 12.546875 4.628906 12.363281 L 4.628906 11.703125 C 4.628906 11.519531 4.777344 11.371094 4.960938 11.371094 Z M 4.960938 11.371094 "/>
     <defs>
  <style id="current-color-scheme" type="text/css">
   .ColorScheme-Text { color:#424242; } .ColorScheme-Highlight { color:#eeeeee; }
  </style>
 </defs>
<path style="fill:currentColor" class="ColorScheme-Text" d="M 4.960938 8.726562 L 5.621094 8.726562 C 5.804688 8.726562 5.953125 8.871094 5.953125 9.054688 L 5.953125 9.71875 C 5.953125 9.898438 5.804688 10.046875 5.621094 10.046875 L 4.960938 10.046875 C 4.777344 10.046875 4.628906 9.898438 4.628906 9.71875 L 4.628906 9.054688 C 4.628906 8.871094 4.777344 8.726562 4.960938 8.726562 Z M 4.960938 8.726562 "/>
     <defs>
  <style id="current-color-scheme" type="text/css">
   .ColorScheme-Text { color:#424242; } .ColorScheme-Highlight { color:#eeeeee; }
  </style>
 </defs>
<path style="fill:currentColor" class="ColorScheme-Text" d="M 4.960938 6.078125 L 5.621094 6.078125 C 5.804688 6.078125 5.953125 6.226562 5.953125 6.410156 L 5.953125 7.070312 C 5.953125 7.253906 5.804688 7.402344 5.621094 7.402344 L 4.960938 7.402344 C 4.777344 7.402344 4.628906 7.253906 4.628906 7.070312 L 4.628906 6.410156 C 4.628906 6.226562 4.777344 6.078125 4.960938 6.078125 Z M 4.960938 6.078125 "/>
     <defs>
  <style id="current-color-scheme" type="text/css">
   .ColorScheme-Text { color:#424242; } .ColorScheme-Highlight { color:#eeeeee; }
  </style>
 </defs>
<path style="fill:currentColor" class="ColorScheme-Text" d="M 4.960938 3.433594 L 5.621094 3.433594 C 5.804688 3.433594 5.953125 3.582031 5.953125 3.761719 L 5.953125 4.425781 C 5.953125 4.609375 5.804688 4.753906 5.621094 4.753906 L 4.960938 4.753906 C 4.777344 4.753906 4.628906 4.609375 4.628906 4.425781 L 4.628906 3.761719 C 4.628906 3.582031 4.777344 3.433594 4.960938 3.433594 Z M 4.960938 3.433594 "/>
</g>
</svg>
